icons/desktop/16/svg/extension-warning-16.svg

<svg width="20" height="20" viewBox="0 0 20 20" fill="none" xmlns="http://www.w3.org/2000/svg">
<path fill-rule="evenodd" clip-rule="evenodd" d="M13.42 10.344C13.902 9.51602 15.0981 9.51602 15.5801 10.344L18.8292 15.9231C19.276 16.6921 18.799 17.6833 17.9161 17.7913C16.6501 17.9473 15.5 18.0003 14.5001 18.0003C13.2651 18.0003 12.1257 17.9182 11.0997 17.7932C10.207 17.684 9.71919 16.699 10.1719 15.9212L13.42 10.344ZM14.5001 15.7503C14.1549 15.7503 13.8751 16.0301 13.8751 16.3753C13.8752 16.7203 14.155 17.0003 14.5001 17.0003C14.8451 17.0003 15.1249 16.7203 15.1251 16.3753C15.1251 16.0301 14.8452 15.7503 14.5001 15.7503ZM14.5001 12.2503C14.1549 12.2503 13.8751 12.5301 13.8751 12.8753V14.3753C13.8752 14.7203 14.155 15.0003 14.5001 15.0003C14.8451 15.0003 15.1249 14.7203 15.1251 14.3753V12.8753C15.1251 12.5301 14.8452 12.2503 14.5001 12.2503Z" fill="black"/>
<path d="M9.01 15.4841C7.531 15.5071 6.052 15.4421 4.594 15.2661C3.971 15.1901 3.5 14.6561 3.5 14.0221V13.5011H3.907C5.174 13.5011 6.273 12.6041 6.467 11.4151C6.586 10.6821 6.381 9.94105 5.905 9.38205C5.428 8.82205 4.734 8.50205 4 8.50205H3.5V7.97905C3.5 7.34705 3.962 6.81405 4.573 6.74005C5.271 6.65605 5.975 6.59305 6.667 6.55405C7.064 6.53205 7.375 6.20305 7.375 5.80505V4.50205C7.375 3.95105 7.823 3.50205 8.375 3.50205H8.625C9.177 3.50205 9.625 3.95105 9.625 4.50205V5.80705C9.625 6.20505 9.936 6.53305 10.333 6.55605C11.031 6.59605 11.729 6.65705 12.409 6.73905C13.031 6.81405 13.5 7.34805 13.5 7.98205V8.70305C13.811 8.56705 14.144 8.47605 14.5 8.47605C14.672 8.47605 14.836 8.50805 15 8.54105V7.98205C15 6.59005 13.963 5.41505 12.589 5.25005C12.108 5.19205 11.617 5.14405 11.125 5.10605V4.50305C11.125 3.12505 10.004 2.00305 8.625 2.00305H8.375C6.996 2.00305 5.875 3.12505 5.875 4.50305V5.10505C5.382 5.14305 4.886 5.19205 4.394 5.25205C3.03 5.41805 2 6.59005 2 7.98005V9.25305C2 9.66705 2.336 10.0031 2.75 10.0031H4C4.294 10.0031 4.572 10.1311 4.763 10.3561C4.956 10.5831 5.035 10.8751 4.987 11.1771C4.911 11.6481 4.447 12.0041 3.908 12.0041H2.751C2.337 12.0041 2.001 12.3401 2.001 12.7541V14.0251C2.001 15.4171 3.039 16.5921 4.415 16.7581C5.765 16.9211 7.14 17.0041 8.501 17.0041C8.6 17.0041 8.7 16.9961 8.8 16.9951C8.709 16.4861 8.785 15.9631 9.011 15.4871L9.01 15.4841Z" fill="black"/>
</svg>

<!-- This Source Code Form is subject to the terms of the Mozilla Public
   - License, v. 2.0. If a copy of the MPL was not distributed with this
   - file, You can obtain one at http://mozilla.org/MPL/2.0/. -->
<svg xmlns="http://www.w3.org/2000/svg" width="20" height="20" fill="context-fill" fill-opacity="context-fill-opacity" viewBox="0 0 20 20">
    <path fill-rule="evenodd" d="M13.42 10.344a1.25 1.25 0 0 1 2.16 0l3.25 5.58c.446.768-.031 1.76-.914 1.867a28 28 0 0 1-6.816.002 1.25 1.25 0 0 1-.928-1.872zm1.08 5.406a.625.625 0 1 0 0 1.25.625.625 0 0 0 0-1.25m0-3.5a.625.625 0 0 0-.625.625v1.5a.625.625 0 0 0 1.25 0v-1.5a.625.625 0 0 0-.625-.625" clip-rule="evenodd" />
    <path d="M9.01 15.484a33 33 0 0 1-4.416-.218A1.25 1.25 0 0 1 3.5 14.022v-.52h.407c1.267 0 2.366-.898 2.56-2.087A2.498 2.498 0 0 0 4 8.502h-.5V7.98c0-.632.462-1.165 1.073-1.239a33 33 0 0 1 2.094-.186.75.75 0 0 0 .708-.749V4.502c0-.55.448-1 1-1h.25c.552 0 1 .45 1 1v1.305a.75.75 0 0 0 .708.749c.698.04 1.396.101 2.076.183A1.247 1.247 0 0 1 13.5 7.982v.721a2.5 2.5 0 0 1 1-.227c.172 0 .336.032.5.065v-.559a2.75 2.75 0 0 0-2.411-2.732 34 34 0 0 0-1.464-.144v-.603c0-1.378-1.121-2.5-2.5-2.5h-.25a2.503 2.503 0 0 0-2.5 2.5v.602q-.741.057-1.481.147A2.74 2.74 0 0 0 2 7.98v1.273c0 .414.336.75.75.75H4a1.004 1.004 0 0 1 .987 1.174c-.076.471-.54.827-1.079.827H2.751a.75.75 0 0 0-.75.75v1.271a2.75 2.75 0 0 0 2.414 2.733 34 34 0 0 0 4.086.246c.099 0 .199-.008.299-.009a2.5 2.5 0 0 1 .211-1.508z" />
</svg>
